smiling-axolotl/src/assets/experience/SecondChanceProd.svg

<svg width="116" height="93" viewBox="0 0 116 93" fill="none" xmlns="http://www.w3.org/2000/svg">
<path fill-rule="evenodd" clip-rule="evenodd" d="M58 0C70.1349 0 81.3989 3.72735 90.7109 10.0986C89.9674 10.6717 89.2657 11.2486 88.665 11.7578C88.5885 11.8226 88.4769 11.82 88.4023 11.7529C85.9666 9.56415 82.8265 6.90941 80.5928 6.90918C78.1142 6.9092 72.5718 11.7694 71.0898 13.1104C70.9556 13.2321 71.0453 13.4491 71.2266 13.4492H95.1387C102.064 19.229 107.621 26.5933 111.253 34.9854C106.675 35.7793 102.663 38.2228 99.8496 41.6807C99.7446 41.8098 99.8374 42.001 100.004 42.001H113.765C115.22 47.083 116 52.4504 116 58C116 71.1473 111.625 83.2722 104.252 93H11.748C4.3753 83.2722 0 71.1473 0 58C0 54.2977 0.347687 50.6765 1.01074 47.167H14.4961C14.6626 47.167 14.7554 46.9758 14.6504 46.8467C11.7499 43.2816 7.5749 40.7954 2.81934 40.083C4.6984 34.2918 7.46535 28.9008 10.957 24.0684H40.4365C40.621 24.0682 40.7089 23.8407 40.5713 23.7178C37.6483 21.107 32.8173 16.3994 29.5957 16.3994C27.2247 16.3999 22.4645 20.1913 19.8467 22.4424C19.7701 22.5082 19.6579 22.5062 19.583 22.4385C18.2764 21.2576 16.7662 19.9182 15.251 18.8008C25.8534 7.24445 41.0807 0 58 0ZM48.2559 62.1016V86.7754H67.7441V62.1016H48.2559ZM57.4883 32.0703C52.2348 32.3367 48.0566 36.6813 48.0566 42.001L48.0693 42.5117C48.3356 47.7649 52.6817 51.9428 58.001 51.9434C63.3202 51.9428 67.6644 47.7649 67.9307 42.5117L67.9434 42.001C67.9434 36.6813 63.7652 32.3367 58.5117 32.0703L58 32.0576L57.4883 32.0703Z" fill="#E68E46"/>
<path d="M63.999 74.0127C64.5511 74.013 64.999 74.4606 64.999 75.0127C64.9989 75.5647 64.551 76.0124 63.999 76.0127C63.4468 76.0127 62.9991 75.5649 62.999 75.0127C62.999 74.4604 63.4467 74.0127 63.999 74.0127Z" fill="#42587D"/>
<path d="M56.0811 44.6934C56.9044 44.7834 57.499 45.5243 57.4092 46.3477C57.3192 47.1708 56.5791 47.7653 55.7559 47.6758C54.9325 47.586 54.3372 46.8458 54.4268 46.0225C54.5166 45.1989 55.2575 44.6036 56.0811 44.6934Z" fill="#42587D"/>
<path d="M59.9189 44.6934C60.7425 44.6036 61.4834 45.1989 61.5732 46.0225C61.6628 46.8458 61.0675 47.586 60.2441 47.6758C59.4209 47.7653 58.6808 47.1708 58.5908 46.3477C58.501 45.5243 59.0956 44.7834 59.9189 44.6934Z" fill="#42587D"/>
<path d="M53.5029 41.0322C54.3263 41.1222 54.9208 41.8631 54.8311 42.6865C54.7412 43.5099 54.0011 44.1042 53.1777 44.0146C52.3542 43.9248 51.7589 43.1848 51.8486 42.3613C51.9384 41.5378 52.6794 40.9424 53.5029 41.0322Z" fill="#42587D"/>
<path d="M62.4971 41.0322C63.3206 40.9424 64.0616 41.5378 64.1514 42.3613C64.2411 43.1848 63.6458 43.9248 62.8223 44.0146C61.9989 44.1042 61.2588 43.5099 61.1689 42.6865C61.0792 41.8631 61.6737 41.1222 62.4971 41.0322Z" fill="#42587D"/>
<path d="M58 40.7158C58.7092 40.7158 59.2842 41.2908 59.2842 42C59.2842 42.7092 58.7092 43.2842 58 43.2842C57.2908 43.2842 56.7158 42.7092 56.7158 42C56.7158 41.2908 57.2908 40.7158 58 40.7158Z" fill="#42587D"/>
<path d="M55.5625 36.6807C56.386 36.7705 56.9804 37.5114 56.8906 38.335C56.8007 39.1584 56.0608 39.7529 55.2373 39.6631C54.4139 39.5733 53.8195 38.8332 53.9092 38.0098C53.999 37.1862 54.739 36.5909 55.5625 36.6807Z" fill="#42587D"/>
<path d="M60.4375 36.6807C61.261 36.5909 62.001 37.1862 62.0908 38.0098C62.1805 38.8332 61.5861 39.5733 60.7627 39.6631C59.9392 39.7529 59.1993 39.1584 59.1094 38.335C59.0196 37.5114 59.614 36.7705 60.4375 36.6807Z" fill="#42587D"/>
<path fill-rule="evenodd" clip-rule="evenodd" d="M57.999 33.0576C62.9376 33.0581 66.9434 37.0623 66.9434 42.001C66.9428 46.9392 62.9373 50.9428 57.999 50.9434C53.0608 50.9428 49.0572 46.9392 49.0566 42.001C49.0566 37.0623 53.0605 33.0581 57.999 33.0576ZM58 34C53.5817 34 50 37.5817 50 42C50 46.4183 53.5817 50 58 50C62.4183 50 66 46.4183 66 42C66 37.5817 62.4183 34 58 34Z" fill="#42587D"/>
<path fill-rule="evenodd" clip-rule="evenodd" d="M83.0996 38.0068V31.9111H81.0742V28.5039H94.834V31.9111H92.8086V45.166L107.5 56H97L92 89C93.7805 89 95.632 89.1097 97.4873 89.2949C97.7517 87.445 97.6038 84.2647 95.2969 82.8037C96.3143 83.3571 98.4245 84.9137 98.7246 86.7129C99.4029 85.3024 100.352 81.7328 98.7246 78.7344C99.8493 79.7701 101.841 82.6437 100.812 85.8564C102.526 83.9464 106.618 80.0192 109.274 79.5908C107.257 81.6437 103.062 86.4675 102.419 89.3379L102.256 89.9219C107.836 90.8203 112.904 92.1692 115.5 93H0.5C3.09616 92.1692 8.16393 90.8203 13.7441 89.9219L13.5811 89.3379C12.9384 86.4675 8.74274 81.6437 6.72559 79.5908C9.3818 80.0192 13.4738 83.9464 15.1875 85.8564C14.1594 82.6437 16.1507 79.7701 17.2754 78.7344C15.648 81.7328 16.5971 85.3024 17.2754 86.7129C17.5755 84.9137 19.6857 83.3571 20.7031 82.8037C18.3962 84.2647 18.2483 87.445 18.5127 89.2949C20.368 89.1097 22.2195 89 24 89L19 56H8.5L58 19.5L83.0996 38.0068ZM49 86.5H67V62.5H49V86.5ZM57.4883 32.0703C52.2348 32.3366 48.0566 36.6813 48.0566 42.001L48.0693 42.5117C48.3356 47.7649 52.6817 51.9428 58.001 51.9434C63.3202 51.9428 67.6644 47.7649 67.9307 42.5117L67.9434 42.001C67.9434 36.6813 63.7652 32.3366 58.5117 32.0703L58 32.0576L57.4883 32.0703Z" fill="#42587D"/>
</svg>

<svg xmlns="http://www.w3.org/2000/svg" width="116" height="93" fill="none"><path fill="#E68E46" fill-rule="evenodd" d="M58 0c12.135 0 23.399 3.727 32.71 10.099a57 57 0 0 0-2.045 1.659.2.2 0 0 1-.263-.005c-2.435-2.189-5.576-4.844-7.81-4.844-2.478 0-8.02 4.86-9.502 6.201-.134.122-.045.34.137.34h23.912a58.2 58.2 0 0 1 16.114 21.535 18.86 18.86 0 0 0-11.403 6.696.197.197 0 0 0 .154.32h13.761A58 58 0 0 1 116 58a57.74 57.74 0 0 1-11.748 35H11.748A57.74 57.74 0 0 1 0 58c0-3.702.348-7.324 1.01-10.833h13.486c.167 0 .26-.191.154-.32a18.86 18.86 0 0 0-11.83-6.764 57.8 57.8 0 0 1 8.137-16.015h29.48a.201.201 0 0 0 .134-.35c-2.923-2.611-7.754-7.319-10.975-7.319-2.371 0-7.131 3.792-9.75 6.043a.2.2 0 0 1-.263-.003c-1.307-1.181-2.817-2.52-4.332-3.638C25.853 7.244 41.081 0 58 0m-9.744 62.102v24.673h19.488V62.102zm9.232-30.032c-5.253.267-9.431 4.611-9.431 9.931l.012.51c.267 5.254 4.613 9.432 9.932 9.432 5.32 0 9.663-4.178 9.93-9.431l.012-.511c0-5.32-4.178-9.664-9.431-9.93L58 32.057z" clip-rule="evenodd"/><path fill="#42587D" d="M63.999 74.013a1 1 0 1 1 0 2 1 1 0 0 1 0-2M56.081 44.693a1.5 1.5 0 1 1-.327 2.984 1.5 1.5 0 0 1 .327-2.984M59.919 44.693a1.5 1.5 0 1 1 .325 2.984 1.5 1.5 0 0 1-.325-2.984M53.503 41.032a1.5 1.5 0 1 1-.327 2.984 1.5 1.5 0 0 1 .327-2.984M62.497 41.032a1.501 1.501 0 1 1 .325 2.985 1.501 1.501 0 0 1-.325-2.985M58 40.716a1.284 1.284 0 1 1 0 2.568 1.284 1.284 0 0 1 0-2.568M55.563 36.68a1.5 1.5 0 1 1-.327 2.983 1.5 1.5 0 0 1 .327-2.982M60.438 36.68a1.5 1.5 0 1 1 .324 2.983 1.5 1.5 0 0 1-.325-2.982"/><path fill="#42587D" fill-rule="evenodd" d="M57.999 33.058c4.939 0 8.944 4.004 8.944 8.943A8.944 8.944 0 1 1 58 33.058M58 34a8 8 0 1 0 0 16 8 8 0 0 0 0-16" clip-rule="evenodd"/><path fill="#42587D" fill-rule="evenodd" d="M83.1 38.007V31.91h-2.026v-3.407h13.76v3.407h-2.025v13.255L107.5 56H97l-5 33c1.78 0 3.632.11 5.487.295.265-1.85.117-5.03-2.19-6.491 1.017.553 3.127 2.11 3.428 3.909.678-1.41 1.627-4.98 0-7.979 1.124 1.036 3.116 3.91 2.087 7.122 1.714-1.91 5.806-5.837 8.462-6.265-2.017 2.053-6.212 6.877-6.855 9.747l-.163.584c5.58.898 10.648 2.247 13.244 3.078H.5c2.596-.83 7.664-2.18 13.244-3.078l-.163-.584c-.643-2.87-4.838-7.694-6.855-9.747 2.656.428 6.748 4.355 8.462 6.265-1.029-3.212.963-6.086 2.087-7.122-1.627 2.999-.678 6.568 0 7.979.3-1.8 2.41-3.356 3.428-3.91-2.307 1.462-2.455 4.642-2.19 6.492A56 56 0 0 1 24 89l-5-33H8.5L58 19.5zM49 86.5h18v-24H49zm8.488-54.43c-5.253.267-9.431 4.611-9.431 9.931l.012.51c.267 5.254 4.613 9.432 9.932 9.432 5.32 0 9.663-4.178 9.93-9.431l.012-.511c0-5.32-4.178-9.664-9.431-9.93L58 32.057z" clip-rule="evenodd"/></svg>
